usr/share/icons/big-icons/symbolic/actions/gnumeric-pagesetup-hf-page.svg

<svg xmlns="http://www.w3.org/2000/svg" viewBox="0 0 16 16">
<defs id="defs3051">
<style id="current-color-scheme" type="text/css">
.ColorScheme-Text{color:#fcfcfc}
</style>
</defs>
<path d="M3 2v12h4v-1H4V3h8v4h1V2zm6 6v1H8v1h1v2H8v1h1v1h1v-1h2v1h1v-1h1v-1h-1v-2h1V9h-1V8h-1v1h-2V8zm1 2h2v2h-2z" class="ColorScheme-Text" style="fill:currentColor;fill-opacity:1;stroke:none"/>
</svg>

<!DOCTYPE svg>
<svg viewBox="0 0 16 16" version="1.1" xmlns="http://www.w3.org/2000/svg">
    <defs>
        <style type="text/css" id="current-color-scheme">
            .ColorScheme-Text {
                color:#eff0f1;
            }
        </style>
    </defs>
    <path class="ColorScheme-Text" style="fill:currentColor; fill-opacity:1; stroke:none" d="M 3 2 L 3 14 L 7 14 L 7 13 L 4 13 L 4 3 L 9 3 L 9 6 L 12 6 L 12 7 L 13 7 L 13 5 L 10 2 L 3 2 Z M 9 8 L 9 9 L 8 9 L 8 10 L 9 10 L 9 12 L 8 12 L 8 13 L 9 13 L 9 14 L 10 14 L 10 13 L 12 13 L 12 14 L 13 14 L 13 13 L 14 13 L 14 12 L 13 12 L 13 10 L 14 10 L 14 9 L 13 9 L 13 8 L 12 8 L 12 9 L 10 9 L 10 8 L 9 8 Z M 10 10 L 12 10 L 12 12 L 10 12 L 10 10 Z"/>
</svg>
